public/images/face.svg

<?xml version="1.0" encoding="UTF-8" standalone="no"?>
<svg
        xmlns:dc="http://purl.org/dc/elements/1.1/"
        xmlns:cc="http://creativecommons.org/ns#"
        xmlns:rdf="http://www.w3.org/1999/02/22-rdf-syntax-ns#"
        xmlns="http://www.w3.org/2000/svg"
        xmlns:sodipodi="http://sodipodi.sourceforge.net/DTD/sodipodi-0.dtd"
        xmlns:inkscape="http://www.inkscape.org/namespaces/inkscape"
        height="24px"
        viewBox="0 0 24 24"
        width="24px"
        fill="#000000"
        version="1.1"
        id="svg6"
        sodipodi:docname="face.svg"
        inkscape:version="1.0.2 (e86c870879, 2021-01-15)">
  <metadata
     id="metadata12">
    <rdf:RDF>
      <cc:Work
         rdf:about="">
        <dc:format>image/svg+xml</dc:format>
        <dc:type
           rdf:resource="http://purl.org/dc/dcmitype/StillImage" />
        <dc:title></dc:title>
      </cc:Work>
    </rdf:RDF>
  </metadata>
  <defs
     id="defs10" />
  <sodipodi:namedview
     pagecolor="#ffffff"
     bordercolor="#666666"
     borderopacity="1"
     objecttolerance="10"
     gridtolerance="10"
     guidetolerance="10"
     inkscape:pageopacity="0"
     inkscape:pageshadow="2"
     inkscape:window-width="1920"
     inkscape:window-height="1030"
     id="namedview8"
     showgrid="false"
     inkscape:zoom="25.897786"
     inkscape:cx="1.7584002"
     inkscape:cy="13.170542"
     inkscape:window-x="0"
     inkscape:window-y="1466"
     inkscape:window-maximized="0"
     inkscape:current-layer="svg6" />
  <path
     d="M0 0h24v24H0V0z"
     fill="none"
     id="path2" />
  <path
     d="M10.25 13c0 .69-.56 1.25-1.25 1.25S7.75 13.69 7.75 13s.56-1.25 1.25-1.25 1.25.56 1.25 1.25zM15 11.75c-.69 0-1.25.56-1.25 1.25s.56 1.25 1.25 1.25 1.25-.56 1.25-1.25-.56-1.25-1.25-1.25zm7 .25c0 5.52-4.48 10-10 10S2 17.52 2 12 6.48 2 12 2s10 4.48 10 10zM10.66 4.12C12.06 6.44 14.6 8 17.5 8c.46 0 .91-.05 1.34-.12C17.44 5.56 14.9 4 12 4c-.46 0-.91.05-1.34.12zM4.42 9.47c1.71-.97 3.03-2.55 3.66-4.44C6.37 6 5.05 7.58 4.42 9.47zM20 12c0-.78-.12-1.53-.33-2.24-.7.15-1.42.24-2.17.24-3.13 0-5.92-1.44-7.76-3.69C8.69 8.87 6.6 10.88 4 11.86c.01.04 0 .09 0 .14 0 4.41 3.59 8 8 8s8-3.59 8-8z"
     id="path4"
     style="fill:#578eb3;fill-opacity:1" />
</svg>

<?xml version="1.0" encoding="UTF-8" standalone="no"?>
<svg
        xmlns:dc="http://purl.org/dc/elements/1.1/"
        xmlns:cc="http://creativecommons.org/ns#"
        xmlns:rdf="http://www.w3.org/1999/02/22-rdf-syntax-ns#"
        xmlns="http://www.w3.org/2000/svg"
        xmlns:sodipodi="http://sodipodi.sourceforge.net/DTD/sodipodi-0.dtd"
        xmlns:inkscape="http://www.inkscape.org/namespaces/inkscape"
        height="24px"
        viewBox="0 0 24 24"
        width="24px"
        fill="#000000"
        version="1.1"
        id="svg6"
        sodipodi:docname="face.svg"
        inkscape:version="1.0.2 (e86c870879, 2021-01-15)">
  <metadata
     id="metadata12">
    <rdf:RDF>
      <cc:Work
         rdf:about="">
        <dc:format>image/svg+xml</dc:format>
        <dc:type
           rdf:resource="http://purl.org/dc/dcmitype/StillImage" />
        <dc:title />
      </cc:Work>
    </rdf:RDF>
  </metadata>
  <defs
     id="defs10" />
  <sodipodi:namedview
     pagecolor="#ffffff"
     bordercolor="#666666"
     borderopacity="1"
     objecttolerance="10"
     gridtolerance="10"
     guidetolerance="10"
     inkscape:pageopacity="0"
     inkscape:pageshadow="2"
     inkscape:window-width="1920"
     inkscape:window-height="1030"
     id="namedview8"
     showgrid="false"
     inkscape:zoom="36.625"
     inkscape:cx="2.967656"
     inkscape:cy="8.6006165"
     inkscape:window-x="0"
     inkscape:window-y="1466"
     inkscape:window-maximized="0"
     inkscape:current-layer="svg6"
     inkscape:document-rotation="0" />
  <path
     d="M0 0h24v24H0V0z"
     fill="none"
     id="path2" />
  <path
     d="m 10.25,13 c 0,0.69 -0.56,1.25 -1.25,1.25 -0.69,0 -1.25,-0.56 -1.25,-1.25 0,-0.69 0.56,-1.25 1.25,-1.25 0.69,0 1.25,0.56 1.25,1.25 z M 15,11.75 c -0.69,0 -1.25,0.56 -1.25,1.25 0,0.69 0.56,1.25 1.25,1.25 0.69,0 1.25,-0.56 1.25,-1.25 0,-0.69 -0.56,-1.25 -1.25,-1.25 z M 22,12 C 22,17.52 17.52,22 12,22 6.48,22 2,17.52 2,12 2,6.48 6.48,2 12,2 17.52,2 22,6.48 22,12 Z m -2,0 C 20,11.22 19.88,10.47 19.67,9.76 18.97,9.91 18.25,10 17.5,10 14.37,10 11.58,8.56 9.74,6.31 8.69,8.87 6.6,10.88 4,11.86 4.01,11.9 4,11.95 4,12 c 0,4.41 3.59,8 8,8 4.41,0 8,-3.59 8,-8 z"
     id="path4"
     style="fill:#578eb3;fill-opacity:1"
     sodipodi:nodetypes="sssssssssssssssscsccsss" />
</svg>
